journy/img/media/techcrunch.svg

<svg fill="none" height="17" viewBox="0 0 124 17" width="124" xmlns="http://www.w3.org/2000/svg"><g clip-rule="evenodd" fill="#122842" fill-rule="evenodd"><path d="m8.46387 4.29755v11.52455h-4.21014v-11.52455h-4.25373v-3.668278h12.7183v3.668278z"/><path d="m17.382 7.07561c-.8906 0-1.3889.60691-1.5197 1.73556h3.2559c-.1958-1.15011-.5868-1.73556-1.7362-1.73556zm5.1644 4.16719h-6.6841c.1308 1.2588.8678 1.8228 1.9314 1.8228.9986 0 1.8234-.218 2.9521-.8034l1.4968 2.496c-1.4096.8249-2.8649 1.3017-4.644 1.3017-3.4296 0-5.3174-2.4317-5.3174-5.9249 0-3.92784 2.2131-5.9464 5.2087-5.9464 3.1251 0 5.0786 2.06215 5.0786 6.2931 0 .3266 0 .5653-.0221.7611z"/><path d="m29.8153 16.0602c-3.341 0-5.3387-2.1265-5.3387-5.9678 0-3.49458 1.7798-5.90344 5.4259-5.90344 2.1487 0 3.3866.99788 4.3845 2.60401l-2.6918 2.04002c-.5419-.99855-.9121-1.47603-1.7577-1.47603-.9986 0-1.4975.99922-1.4975 2.79984 0 1.8026.5418 2.7341 1.6054 2.7341.7377 0 1.2588-.4118 1.9757-1.4754l2.4739 1.9314c-1.3238 1.9535-2.5611 2.7133-4.5797 2.7133z"/><path d="m43.138 15.8219v-6.46813c0-1.47602-.499-1.86632-1.3017-1.86632-.8255 0-1.3245.3903-1.3245 1.82274v6.51171h-3.9063v-14.25936l3.9063-1.56254v5.18723c.7156-.5432 1.5196-.99855 2.8642-.99855 2.4967 0 3.6904 1.67118 3.6904 4.66616v6.96706z"/><path d="m56.4186 16.0603c-4.5146 0-6.9235-3.3424-6.9235-7.83485 0-4.88344 2.8642-7.834825 6.9443-7.834825 3.734 0 5.21 1.605455 6.2515 4.471005l-3.8199 1.49749c-.5432-1.41031-1.0636-2.30022-2.4524-2.30022-1.7577 0-2.5175 1.75769-2.5175 4.16655 0 2.32235.7377 4.16655 2.5604 4.16655 1.3238 0 1.8885-.7156 2.7126-2.148l3.5604 1.8878c-1.0207 1.9971-2.714 3.9285-6.3159 3.9285z"/><path d="m72.3434 8.72466c-.4989-.5432-1.0629-.95496-1.8221-.95496-.9563 0-1.5417.45602-1.5417 1.84487v6.20723h-3.9064v-11.39446h3.9064v.82419c.6726-.6505 1.4324-1.06293 2.431-1.06293.8248 0 1.3895.19448 1.8448.47748z"/><path d="m81.6308 15.822v-.7605c-.6947.5425-1.5196.9985-2.8427.9985-2.4961 0-3.6904-1.6705-3.6904-4.6668v-6.96571h3.9284v6.46811c0 1.4754.499 1.8657 1.3024 1.8657s1.3023-.3903 1.3023-1.8235v-6.51031h3.9285v11.39451z"/><path d="m94.9104 15.8219v-6.46808c0-1.47603-.4989-1.86633-1.3017-1.86633-.8255 0-1.3244.3903-1.3244 1.82274v6.51167h-3.9064v-11.39444h3.9064v.75981c.7155-.5432 1.5196-.99855 2.8642-.99855 2.4967 0 3.6904 1.67118 3.6904 4.66616v6.96702z"/><path d="m106.453 16.0602c-3.342 0-5.339-2.1265-5.339-5.9678 0-3.49458 1.779-5.90344 5.426-5.90344 2.148 0 3.386.99788 4.384 2.60401l-2.691 2.04002c-.543-.99855-.912-1.47603-1.758-1.47603-.999 0-1.498.99922-1.498 2.79984 0 1.8026.542 2.7341 1.606 2.7341.738 0 1.259-.4118 1.975-1.4754l2.474 1.9314c-1.324 1.9535-2.56 2.7133-4.579 2.7133z"/><path d="m119.776 15.8219v-6.46813c0-1.47602-.499-1.86632-1.302-1.86632-.826 0-1.324.3903-1.324 1.82274v6.51171h-3.907v-14.25936l3.907-1.56254v5.18723c.716-.5432 1.519-.99855 2.864-.99855 2.496 0 3.69 1.67118 3.69 4.66616v6.96706z"/></g></svg>

<svg width="124" height="17" viewBox="0 0 124 17" fill="none" xmlns="http://www.w3.org/2000/svg">
<path fill-rule="evenodd" clip-rule="evenodd" d="M8.46387 4.29755V15.8221H4.25373V4.29755H0V0.629272H12.7183V4.29755H8.46387Z" fill="#122842"/>
<path fill-rule="evenodd" clip-rule="evenodd" d="M17.382 7.07561C16.4914 7.07561 15.9931 7.68252 15.8623 8.81117H19.1182C18.9224 7.66106 18.5314 7.07561 17.382 7.07561ZM22.5464 11.2428H15.8623C15.9931 12.5016 16.7301 13.0656 17.7937 13.0656C18.7923 13.0656 19.6171 12.8476 20.7458 12.2622L22.2426 14.7582C20.833 15.5831 19.3777 16.0599 17.5986 16.0599C14.169 16.0599 12.2812 13.6282 12.2812 10.135C12.2812 6.20716 14.4943 4.1886 17.4899 4.1886C20.615 4.1886 22.5685 6.25075 22.5685 10.4817C22.5685 10.8083 22.5685 11.047 22.5464 11.2428Z" fill="#122842"/>
<path fill-rule="evenodd" clip-rule="evenodd" d="M29.8153 16.0602C26.4743 16.0602 24.4766 13.9337 24.4766 10.0924C24.4766 6.59782 26.2564 4.18896 29.9025 4.18896C32.0512 4.18896 33.2891 5.18684 34.287 6.79297L31.5952 8.83299C31.0533 7.83444 30.6831 7.35696 29.8375 7.35696C28.8389 7.35696 28.34 8.35618 28.34 10.1568C28.34 11.9594 28.8818 12.8909 29.9454 12.8909C30.6831 12.8909 31.2042 12.4791 31.9211 11.4155L34.395 13.3469C33.0712 15.3004 31.8339 16.0602 29.8153 16.0602Z" fill="#122842"/>
<path fill-rule="evenodd" clip-rule="evenodd" d="M43.138 15.8219V9.35377C43.138 7.87775 42.639 7.48745 41.8363 7.48745C41.0108 7.48745 40.5118 7.87775 40.5118 9.31019V15.8219H36.6055V1.56254L40.5118 0V5.18723C41.2274 4.64403 42.0314 4.18868 43.376 4.18868C45.8727 4.18868 47.0664 5.85986 47.0664 8.85484V15.8219H43.138Z" fill="#122842"/>
<path fill-rule="evenodd" clip-rule="evenodd" d="M56.4186 16.0603C51.904 16.0603 49.4951 12.7179 49.4951 8.22545C49.4951 3.34201 52.3593 0.390625 56.4394 0.390625C60.1734 0.390625 61.6494 1.99608 62.6909 4.86163L58.871 6.35912C58.3278 4.94881 57.8074 4.0589 56.4186 4.0589C54.6609 4.0589 53.9011 5.81659 53.9011 8.22545C53.9011 10.5478 54.6388 12.392 56.4615 12.392C57.7853 12.392 58.35 11.6764 59.1741 10.244L62.7345 12.1318C61.7138 14.1289 60.0205 16.0603 56.4186 16.0603Z" fill="#122842"/>
<path fill-rule="evenodd" clip-rule="evenodd" d="M72.3434 8.72466C71.8445 8.18146 71.2805 7.7697 70.5213 7.7697C69.565 7.7697 68.9796 8.22572 68.9796 9.61457V15.8218H65.0732V4.42734H68.9796V5.25153C69.6522 4.60103 70.412 4.1886 71.4106 4.1886C72.2354 4.1886 72.8001 4.38308 73.2554 4.66608L72.3434 8.72466Z" fill="#122842"/>
<path fill-rule="evenodd" clip-rule="evenodd" d="M81.6308 15.822V15.0615C80.9361 15.604 80.1112 16.06 78.7881 16.06C76.292 16.06 75.0977 14.3895 75.0977 11.3932V4.42749H79.0261V10.8956C79.0261 12.371 79.5251 12.7613 80.3285 12.7613C81.1319 12.7613 81.6308 12.371 81.6308 10.9378V4.42749H85.5593V15.822H81.6308Z" fill="#122842"/>
<path fill-rule="evenodd" clip-rule="evenodd" d="M94.9104 15.8219V9.35382C94.9104 7.87779 94.4115 7.48749 93.6087 7.48749C92.7832 7.48749 92.2843 7.87779 92.2843 9.31023V15.8219H88.3779V4.42746H92.2843V5.18727C92.9998 4.64407 93.8039 4.18872 95.1485 4.18872C97.6452 4.18872 98.8389 5.8599 98.8389 8.85488V15.8219H94.9104Z" fill="#122842"/>
<path fill-rule="evenodd" clip-rule="evenodd" d="M106.453 16.0602C103.111 16.0602 101.114 13.9337 101.114 10.0924C101.114 6.59782 102.893 4.18896 106.54 4.18896C108.688 4.18896 109.926 5.18684 110.924 6.79297L108.233 8.83299C107.69 7.83444 107.321 7.35696 106.475 7.35696C105.476 7.35696 104.977 8.35618 104.977 10.1568C104.977 11.9594 105.519 12.8909 106.583 12.8909C107.321 12.8909 107.842 12.4791 108.558 11.4155L111.032 13.3469C109.708 15.3004 108.472 16.0602 106.453 16.0602Z" fill="#122842"/>
<path fill-rule="evenodd" clip-rule="evenodd" d="M119.776 15.8219V9.35377C119.776 7.87775 119.277 7.48745 118.474 7.48745C117.648 7.48745 117.15 7.87775 117.15 9.31019V15.8219H113.243V1.56254L117.15 0V5.18723C117.866 4.64403 118.669 4.18868 120.014 4.18868C122.51 4.18868 123.704 5.85986 123.704 8.85484V15.8219H119.776Z" fill="#122842"/>
</svg>
